X:1
T:Frennett Hall
M:3/4
L:1/8
K:Bb
(D3/2^F/)|G2 G2 A3/2 c/|d3/2 d/ d2 (d3/2e/4f/4)|dc BA G3/2 c/|
w:When_ Fren-nett castle's_ iv-ied wa's Thro'__ yal - low_ leaves were
{B2}A4 (G3/2^F/)|G3/2 G/ (G3/2A/) (B3/2c/)|d3/2 d/ d2 (d3/2e/4f/4)|d c (BA) (G^F)|
w:seen; When_ birds for-sook_ the_ sap-less boughs, And__ bees the fad - ed_
{^F}G4||d3/2f/|g3/2 g/ g2 (a3/2g/)|{g}f3/2 d/ d2 (d3/2=e/4f/4)|dc BA G3/2 c/|
w:green; Then_ La-dy Fren-net,_ venge-ful dame, Did__ wan - der_ frae the
{B2}A4 G3/2 ^F/|G2 (G3/2A/) (B3/2c/)|d3/2 d/ d2 (d3/2=e/4f/4)|d c BA G^F|G4|]
w:ha', To the wild for - est's_ dew-ie gloom, A_- mong the leaves_ that_ fa'.
